packages/swarm-icons/src/icons/line/Refresh.svg

<svg xmlns="http://www.w3.org/2000/svg" width="24" height="24" viewBox="0 0 24 24">
  <path fill="#757575" d="M18.2424899,10.5466101 C18.233931,10.5249171 18.2267878,10.5023634 18.2211958,10.4790319 C17.526389,7.58005153 14.9224247,5.5 11.9,5.5 C9.43393714,5.5 7.21500835,6.88520977 6.11071485,9.04137768 C5.98483589,9.28716031 5.68354465,9.38436144 5.43776202,9.25848249 C5.19197939,9.13260354 5.09477826,8.83131229 5.22065721,8.58552967 C6.49440751,6.09849203 9.0549872,4.5 11.9,4.5 C15.3343833,4.5 18.299983,6.82712351 19.1554651,10.0936559 L20.1550314,7.19070465 C20.2449345,6.92960691 20.529477,6.79082628 20.7905747,6.88072944 C21.0516725,6.97063261 21.1904531,7.25517506 21.1005499,7.51627281 L19.7019959,11.5779686 C19.6120927,11.8390664 19.3275503,11.977847 19.0664525,11.8879438 L15.0047567,10.4893898 C14.743659,10.3994866 14.6048783,10.1149442 14.6947815,9.85384645 C14.7846847,9.5927487 15.0692271,9.45396807 15.3303249,9.54387124 L18.2424899,10.5466101 Z M5.65963591,13.3687106 C5.6681948,13.3904036 5.67533804,13.4129573 5.68092995,13.4362888 C6.37573681,16.3352692 8.97970107,18.4153207 12.0021258,18.4153207 C14.4681887,18.4153207 16.6871174,17.0301109 17.7914109,14.873943 C17.9172899,14.6281604 18.2185811,14.5309593 18.4643638,14.6568382 C18.7101464,14.7827172 18.8073475,15.0840084 18.6814686,15.329791 C17.4077183,17.8168287 14.8471386,19.4153207 12.0021258,19.4153207 C8.5677425,19.4153207 5.60214279,17.0881972 4.7466607,13.8216648 L3.74709443,16.7246161 C3.65719127,16.9857138 3.37264881,17.1244944 3.11155107,17.0345913 C2.85045332,16.9446881 2.71167269,16.6601456 2.80157586,16.3990479 L4.20012989,12.3373521 C4.29003305,12.0762543 4.57457551,11.9374737 4.83567325,12.0273769 L8.89736908,13.4259309 C9.15846682,13.5158341 9.29724745,13.8003765 9.20734429,14.0614743 C9.11744112,14.322572 8.83289867,14.4613526 8.57180092,14.3714495 L5.65963591,13.3687106 Z"/>
</svg>

<svg xmlns="http://www.w3.org/2000/svg" width="24" height="24"><path fill="#757575" d="M18.242 10.547a.504.504 0 01-.02-.068A6.503 6.503 0 006.11 9.041a.5.5 0 01-.89-.455 7.503 7.503 0 0113.935 1.508l.999-2.903a.5.5 0 11.946.325l-1.399 4.062a.5.5 0 01-.636.31l-4.061-1.399a.5.5 0 11.325-.945l2.912 1.003zM5.66 13.369a.504.504 0 01.02.067 6.503 6.503 0 0012.111 1.438.5.5 0 01.89.456 7.503 7.503 0 01-13.935-1.508l-.999 2.903a.5.5 0 01-.945-.326L4.2 12.337a.5.5 0 01.636-.31l4.061 1.399a.5.5 0 01-.325.945L5.66 13.37z"/></svg>
